X:686
T:Reel 686
M:4/4
K:Gmaj
L:1/8
ge|dGBG dGBG|dGBG FAAc|dGBG dgeg||dgfa g2ge||gaba g2ge|dggf g2bg|agbg ageg|dggf gbag|fede fgag|dggf gbag|egdB AGEG|Bdde gagb|agef gedc|
